Hatter-kde/actions/22/im-icq.svg

<svg xmlns="http://www.w3.org/2000/svg" viewBox="0 0 22 22">
  <defs id="defs3051">
    <style type="text/css" id="current-color-scheme">
      .ColorScheme-Text {
        color:#363636;
      }
      </style>
  </defs>
 <path 
     style="fill:currentColor;fill-opacity:1;stroke:none" 
     d="M 11 3 A 1.9999995 3 0 0 0 9 6 A 1.9999995 3 0 0 0 9.0058594 6.1855469 A 3 1.9999995 45 0 0 8.8789062 6.0507812 A 3 1.9999995 45 0 0 5.34375 5.34375 A 3 1.9999995 45 0 0 6.0507812 8.8789062 A 3 1.9999995 45 0 0 6.1835938 9.0058594 A 3 1.9999995 0 0 0 6 9 A 3 1.9999995 0 0 0 3 11 A 3 1.9999995 0 0 0 6 13 A 3 1.9999995 0 0 0 6.1855469 12.994141 A 1.9999995 3 45 0 0 6.0507812 13.121094 A 1.9999995 3 45 0 0 5.34375 16.65625 A 1.9999995 3 45 0 0 8.8789062 15.949219 A 1.9999995 3 45 0 0 9.0058594 15.816406 A 1.9999995 3 0 0 0 9 16 A 1.9999995 3 0 0 0 11 19 A 1.9999995 3 0 0 0 13 16 A 1.9999995 3 0 0 0 12.994141 15.814453 A 3 1.9999995 45 0 0 13.121094 15.949219 A 3 1.9999995 45 0 0 16.65625 16.65625 A 3 1.9999995 45 0 0 15.949219 13.121094 A 3 1.9999995 45 0 0 15.816406 12.994141 A 3 1.9999995 0 0 0 16 13 A 3 1.9999995 0 0 0 19 11 A 3 1.9999995 0 0 0 16 9 A 3 1.9999995 0 0 0 15.814453 9.0058594 A 1.9999995 3 45 0 0 15.949219 8.8789062 A 1.9999995 3 45 0 0 16.65625 5.34375 A 1.9999995 3 45 0 0 13.121094 6.0507812 A 1.9999995 3 45 0 0 12.994141 6.1835938 A 1.9999995 3 0 0 0 13 6 A 1.9999995 3 0 0 0 11 3 z M 11.994141 8.5976562 A 1.9999995 3 45 0 0 12.414062 9.5859375 A 1.9999995 3 45 0 0 13.400391 10.005859 A 3 1.9999995 0 0 0 13 11 A 3 1.9999995 0 0 0 13.402344 11.994141 A 3 1.9999995 45 0 0 12.414062 12.414062 A 3 1.9999995 45 0 0 11.994141 13.400391 A 1.9999995 3 0 0 0 11 13 A 1.9999995 3 0 0 0 10.005859 13.400391 A 1.9999995 3 45 0 0 9.5859375 12.414062 A 1.9999995 3 45 0 0 8.5996094 11.994141 A 3 1.9999995 0 0 0 9 11 A 3 1.9999995 0 0 0 8.5996094 10.005859 A 3 1.9999995 45 0 0 9.5859375 9.5859375 A 3 1.9999995 45 0 0 10.005859 8.5996094 A 1.9999995 3 0 0 0 11 9 A 1.9999995 3 0 0 0 11.994141 8.5976562 z M 11 10 C 10.446 10 10 10.446 10 11 C 10 11.554 10.446 12 11 12 C 11.554 12 12 11.554 12 11 C 12 10.446 11.554 10 11 10 z "
     class="ColorScheme-Text"
     />
</svg>

<?xml version="1.0" encoding="UTF-8"?>
<svg viewBox="0 0 22 22" xmlns="http://www.w3.org/2000/svg">
 <defs id="defs3051">
  <style id="current-color-scheme" type="text/css">.ColorScheme-Text {
        color:#363636;
      }</style>
 </defs>
 <path class="ColorScheme-Text" d="m11 3a2 3 0 0 0-2 3 2 3 0 0 0 0.0058594 0.18555 3 2 45 0 0-0.12695-0.13477 3 2 45 0 0-3.5352-0.70703 3 2 45 0 0 0.70703 3.5352 3 2 45 0 0 0.13281 0.12695 3 2 0 0 0-0.18359-0.0058594 3 2 0 0 0-3 2 3 2 0 0 0 3 2 3 2 0 0 0 0.18555-0.005859 2 3 45 0 0-0.13477 0.12695 2 3 45 0 0-0.70703 3.5352 2 3 45 0 0 3.5352-0.70703 2 3 45 0 0 0.12695-0.13281 2 3 0 0 0-0.0058594 0.18359 2 3 0 0 0 2 3 2 3 0 0 0 2-3 2 3 0 0 0-0.005859-0.18555 3 2 45 0 0 0.12695 0.13477 3 2 45 0 0 3.5352 0.70703 3 2 45 0 0-0.70703-3.5352 3 2 45 0 0-0.13281-0.12695 3 2 0 0 0 0.18359 0.005859 3 2 0 0 0 3-2 3 2 0 0 0-3-2 3 2 0 0 0-0.18555 0.0058594 2 3 45 0 0 0.13477-0.12695 2 3 45 0 0 0.70703-3.5352 2 3 45 0 0-3.5352 0.70703 2 3 45 0 0-0.12695 0.13281 2 3 0 0 0 0.005859-0.18359 2 3 0 0 0-2-3zm0.99414 5.5977a2 3 45 0 0 0.41992 0.98828 2 3 45 0 0 0.98633 0.41992 3 2 0 0 0-0.40039 0.99414 3 2 0 0 0 0.40234 0.99414 3 2 45 0 0-0.98828 0.41992 3 2 45 0 0-0.41992 0.98633 2 3 0 0 0-0.99414-0.40039 2 3 0 0 0-0.99414 0.40039 2 3 45 0 0-0.41992-0.98633 2 3 45 0 0-0.98633-0.41992 3 2 0 0 0 0.40039-0.99414 3 2 0 0 0-0.40039-0.99414 3 2 45 0 0 0.98633-0.41992 3 2 45 0 0 0.41992-0.98633 2 3 0 0 0 0.99414 0.40039 2 3 0 0 0 0.99414-0.40234zm-0.99414 1.4023c-0.554 0-1 0.446-1 1s0.446 1 1 1 1-0.446 1-1-0.446-1-1-1z" fill="currentColor"/>
</svg>
